X:29
T:La chèvre
R:---
C:Limousin ?
I:abc2nwc
L:1/8
Z:Transcrit et/ou corrigé par Michel BELLON - 2007-09-06
Z:Pour toute observation mailto:galouvielle@free.fr
M:6/8
K:C
%%continueall 1
G | c2d e2f | d2e !breath!c2G | c2d e2f | d3- d2 ::
w:Elle a man-gé des choux la chèvre elle a man-gé des choux_
z | e2d c2B | A3 G2G | G2c B2c | d3 d3 | e2d c2B | A3 G3 | G2c B2d | c6 :|
w:Des choux des choux ra-ves d'la chi-co-rée sau-va-ge des choux des choux ra-ves et des pis-sen-lits.
%%text 6x

%%footer $D   Galouvielle-MBe 2007 \nEnfants (France)
